X:1
T:Title
%%score ( 1 2 ) { ( 3 5 ) | 4 }
L:1/8
Q:1/4=108
M:4/4
K:F
V:1 treble nm="Grand Piano, Soprano"
V:2 treble 
V:3 bass nm="Choir Pad, Christ Lag (Walther)"
V:5 bass 
V:4 bass 
V:1
 [EA]4 [EG]2 [CA]2 | [Ec]2 [Gd]2 c2 =B2 | [^CA]2 z [FA] [DF]2 [EG]2 | [FA]2 GF [^CE]2 D2 | %4
w: By~Johann~Walther,~1524 * *||||
 [EA]4 [EG]2 [CA]2 | [Ec]2 [Gd]2 c2 =B2 | [^CA]2 z [FA] [DF]2 [EG]2 | [FA]2 GF [^CE]2 D2 | %8
w: ||||
 D2 [DF]2 [DG]2 B,C | [=B,D]2 [DG]2 [^CA]2 z [EA] | [Fd]2 [Ec]2 [Gd]2 e2 | %11
w: |||
 c2 [E=B]2 [^CA]2 z [CA] | [Ec]2 [DA]2 [Cc]2 [EG]2 | [DF]2 [^CE]2 D4 | [FA]2 GF [^CE]2 D2- | %15
w: ||||
 D6 z2 |] %16
w: |
V:2
 x8 | z4 E4 | x8 | z2 D2 z4 | x8 | z4 E4 | x8 | z2 D2 z4 | z4 z2 D2 | x8 | z4 z2 E2- | E2 z2 z4 | %12
 x8 | x8 | z2 D2 z4 | x8 |] %16
V:3
 C4 =B,2 A,2 | G,2 =B,2 A,2 _A,2 | A,2 z C B,2 B,2 | C2 B,A, A,2 ^F,2 | C4 =B,2 A,2 | %5
 G,2 =B,2 A,2 _A,2 | A,2 z C B,2 B,2 | C2 B,A, A,2 ^F,2 | A,2 B,2 C2 G,2 | A,2 D,2 E,2 z C | %10
 A,2 A,2 =B,2 G,2 | A,2 z2 z4 | G,2 F,2 E,2 C2 | A,2 A,2 ^F,4 | C2 B,A, A,2 ^F,2- | F,6 z2 |] %16
V:4
 A,,4 E,2 F,2 | C,2 G,,2 A,,2 E,2 | A,,2 z F, B,,2 G,,2 | F,,2 G,,2 A,,2 D,2 | A,,4 E,2 F,2 | %5
 C,2 G,,2 A,,2 E,2 | A,,2 z F, B,,2 G,,2 | F,,2 G,,2 A,,2 D,2 | D,2 B,,2 G,,2 z2 | %9
 D,2 B,,2 A,,2 z A, | D,2 z2 G,2 C,2 | z2 E,2 A,,2 z2 | C,2 D,2 A,,2 C,2 | F,,G,, A,,2 D,4 | %14
 F,,2 G,,2 A,,2 D,2- | D,6 z2 |] %16
V:5
 x8 | x8 | x8 | x8 | x8 | x8 | x8 | x8 | x8 | x8 | x8 | z D, _A,2 =A,2 z F, | x8 | x8 | x8 | x8 |] %16

